resources/svg/contract-o.svg

<svg width="15" height="15" viewBox="0 0 15 15" fill="none" xmlns="http://www.w3.org/2000/svg">
<path d="M4.5 7H4V8H4.5V7ZM10.5 8H11V7H10.5V8ZM4.5 4H4V5H4.5V4ZM6.5 5H7V4H6.5V5ZM10.5 0.5L10.8536 0.146447L10.7071 0H10.5V0.5ZM13.5 3.5H14V3.29289L13.8536 3.14645L13.5 3.5ZM8 11L7.64645 11.3536L8 11ZM7.5 11.5L7.72361 11.9472L7.76393 11.9271L7.8 11.9L7.5 11.5ZM4.5 8H10.5V7H4.5V8ZM4.5 5H6.5V4H4.5V5ZM12.5 14H2.5V15H12.5V14ZM2 13.5V1.5H1V13.5H2ZM2.5 1H10.5V0H2.5V1ZM13 3.5V13.5H14V3.5H13ZM10.1464 0.853553L13.1464 3.85355L13.8536 3.14645L10.8536 0.146447L10.1464 0.853553ZM2.5 14C2.22386 14 2 13.7761 2 13.5H1C1 14.3284 1.67157 15 2.5 15V14ZM12.5 15C13.3284 15 14 14.3284 14 13.5H13C13 13.7761 12.7761 14 12.5 14V15ZM2 1.5C2 1.22386 2.22386 1 2.5 1V0C1.67157 0 1 0.671574 1 1.5H2ZM5.47434 11.6581C5.58548 11.3247 5.90087 11.0164 6.30473 10.9079C6.68131 10.8067 7.16602 10.8731 7.64645 11.3536L8.35355 10.6464C7.63399 9.92688 6.78536 9.74329 6.04527 9.94212C5.33246 10.1336 4.74785 10.6753 4.52566 11.3419L5.47434 11.6581ZM7.64645 11.3536C7.67908 11.3862 7.70467 11.4154 7.72459 11.4411L8.51426 10.8275C8.46608 10.7655 8.41233 10.7052 8.35355 10.6464L7.64645 11.3536ZM7.72459 11.4411C7.80288 11.5418 7.78541 11.5732 7.78796 11.5516C7.78967 11.537 7.7944 11.5596 7.73425 11.6143C7.67364 11.6694 7.57537 11.7298 7.4445 11.7829C7.31632 11.835 7.17676 11.8719 7.05043 11.891C6.91689 11.9112 6.83111 11.9066 6.80034 11.9005C6.78307 11.8971 6.81823 11.9001 6.86923 11.9376C6.93399 11.9852 7.01512 12.0856 7.02157 12.2302C7.02428 12.2912 7.01204 12.3388 7.00112 12.3682C6.99048 12.3968 6.97957 12.4125 6.978 12.4147C6.97644 12.4169 6.99299 12.3942 7.05032 12.3478C7.16415 12.2558 7.37375 12.1221 7.72361 11.9472L7.27639 11.0528C6.8991 11.2414 6.61656 11.4126 6.42161 11.5702C6.32456 11.6487 6.23256 11.737 6.16185 11.8368C6.09446 11.932 6.01405 12.0838 6.02256 12.2747C6.03219 12.4908 6.14944 12.6496 6.27681 12.7433C6.39042 12.8268 6.51467 12.8634 6.60653 12.8815C6.79402 12.9186 7.00664 12.909 7.20002 12.8798C7.58043 12.8222 8.07231 12.6585 8.40702 12.3541C8.58139 12.1955 8.74593 11.9674 8.78111 11.6684C8.81713 11.3623 8.70679 11.0753 8.51426 10.8275L7.72459 11.4411ZM7.8 11.9C7.98368 11.7622 8.1564 11.6631 8.31798 11.5932L7.92087 10.6754C7.68075 10.7793 7.44051 10.9196 7.2 11.1L7.8 11.9ZM8.31798 11.5932C8.96891 11.3115 9.54926 11.4604 10.1444 11.7438C10.2938 11.815 10.4398 11.8926 10.5877 11.9726C10.7318 12.0506 10.884 12.1345 11.0288 12.2078C11.3038 12.347 11.6465 12.5 12 12.5V11.5C11.9065 11.5 11.7523 11.4532 11.4804 11.3156C11.3518 11.2505 11.2181 11.1768 11.0638 11.0932C10.9132 11.0117 10.7483 10.9238 10.5744 10.841C9.876 10.5084 8.96304 10.2245 7.92087 10.6754L8.31798 11.5932Z" fill="black"/>
</svg>

<svg viewBox="0 0 15 15" fill="none" xmlns="http://www.w3.org/2000/svg" fill="currentColor"><path d="M4.5 7H4v1h.5V7zm6 1h.5V7h-.5v1zm-6-4H4v1h.5V4zm2 1H7V4h-.5v1zm4-4.5l.354-.354L10.707 0H10.5v.5zm3 3h.5v-.207l-.146-.147-.354.354zM8 11l-.354.354L8 11zm-.5.5l.224.447.04-.02.036-.027-.3-.4zM4.5 8h6V7h-6v1zm0-3h2V4h-2v1zm8 9h-10v1h10v-1zM2 13.5v-12H1v12h1zM2.5 1h8V0h-8v1zM13 3.5v10h1v-10h-1zM10.146.854l3 3 .708-.708-3-3-.708.708zM2.5 14a.5.5 0 01-.5-.5H1A1.5 1.5 0 002.5 15v-1zm10 1a1.5 1.5 0 001.5-1.5h-1a.5.5 0 01-.5.5v1zM2 1.5a.5.5 0 01.5-.5V0A1.5 1.5 0 001 1.5h1zm3.474 10.158c.111-.333.427-.642.83-.75.377-.101.862-.035 1.342.446l.708-.708c-.72-.72-1.569-.903-2.309-.704-.713.192-1.297.733-1.52 1.4l.95.316zm2.172-.304a.933.933 0 01.079.087l.79-.614a1.945 1.945 0 00-.161-.18l-.708.707zm.079.087c.078.1.06.132.063.11.002-.014.006.009-.054.063a1 1 0 01-.29.169 1.781 1.781 0 01-.394.108.848.848 0 01-.25.01c-.017-.004.018 0 .07.037a.388.388 0 01.131.43.209.209 0 01-.023.047c-.002.002.015-.02.072-.067.114-.092.324-.226.674-.4l-.448-.895c-.377.188-.66.36-.854.517a1.375 1.375 0 00-.26.267.705.705 0 00-.14.438.61.61 0 00.255.468c.113.084.238.12.33.139.187.037.4.027.593-.002.38-.058.872-.222 1.207-.526.174-.159.339-.387.374-.686.036-.306-.074-.593-.267-.84l-.79.613zm.075.459a2.56 2.56 0 01.518-.307l-.397-.918c-.24.104-.48.245-.721.425l.6.8zm.518-.307c.65-.281 1.231-.133 1.826.15.15.072.296.15.444.23.144.078.296.161.44.235.276.139.618.292.972.292v-1c-.094 0-.248-.047-.52-.184-.128-.066-.262-.14-.416-.223-.15-.081-.316-.17-.49-.252-.698-.333-1.611-.616-2.653-.166l.397.918z" fill="currentColor"/></svg>
